dist/assets/style/footer/img/whatsapp.svg

<svg width="26" height="26" viewBox="0 0 26 26" fill="none" xmlns="http://www.w3.org/2000/svg">
<path d="M18.1161 15.2318C17.8393 15.0896 16.4606 14.4143 16.2042 14.3229C15.9477 14.2264 15.7599 14.1807 15.5745 14.465C15.3866 14.7469 14.8534 15.374 14.6858 15.5645C14.5233 15.7523 14.3583 15.7752 14.0815 15.6355C12.4362 14.8129 11.3571 14.168 10.2729 12.3068C9.98603 11.8117 10.5599 11.8473 11.0956 10.7783C11.187 10.5904 11.1413 10.4305 11.0702 10.2883C10.9991 10.1461 10.4405 8.76992 10.2069 8.20879C9.98096 7.66289 9.74736 7.73906 9.57724 7.72891C9.41475 7.71875 9.22939 7.71875 9.0415 7.71875C8.85361 7.71875 8.55146 7.78984 8.29502 8.0666C8.03857 8.34844 7.31494 9.02637 7.31494 10.4025C7.31494 11.7787 8.31787 13.1117 8.45498 13.2996C8.59717 13.4875 10.4278 16.3109 13.2386 17.5271C15.0159 18.2939 15.7116 18.36 16.6003 18.2279C17.1411 18.1467 18.2558 17.5525 18.4868 16.8949C18.7179 16.2398 18.7179 15.6787 18.6493 15.5619C18.5808 15.4375 18.3929 15.3664 18.1161 15.2318Z" fill="white"/>
<path d="M23.4913 8.59219C22.9175 7.22871 22.0948 6.00488 21.0462 4.95371C19.9976 3.90508 18.7737 3.07988 17.4077 2.50859C16.0112 1.92207 14.5284 1.625 12.9999 1.625H12.9491C11.4104 1.63262 9.92002 1.9373 8.51845 2.53652C7.16513 3.11543 5.95146 3.93809 4.91299 4.98672C3.87451 6.03535 3.05947 7.2541 2.4958 8.6125C1.91181 10.0191 1.61728 11.5146 1.6249 13.0533C1.63252 14.8154 2.054 16.5648 2.84365 18.1289V21.9883C2.84365 22.6332 3.3667 23.1562 4.01162 23.1562H7.87353C9.43759 23.9459 11.187 24.3674 12.9491 24.375H13.0024C14.5233 24.375 15.9985 24.0805 17.3874 23.5041C18.7458 22.9379 19.9671 22.1254 21.0132 21.0869C22.0618 20.0484 22.887 18.8348 23.4634 17.4814C24.0626 16.0799 24.3673 14.5895 24.3749 13.0508C24.3825 11.5045 24.0829 10.0039 23.4913 8.59219V8.59219ZM19.6548 19.7133C17.8749 21.4754 15.5136 22.4453 12.9999 22.4453H12.9567C11.4257 22.4377 9.90478 22.0568 8.56162 21.3408L8.34834 21.2266H4.77334V17.6516L4.65908 17.4383C3.94306 16.0951 3.5622 14.5742 3.55459 13.0432C3.54443 10.5117 4.51181 8.13516 6.28662 6.34512C8.05888 4.55508 10.4278 3.56484 12.9593 3.55469H13.0024C14.272 3.55469 15.5034 3.80098 16.6638 4.28848C17.7962 4.76328 18.8118 5.44629 19.6852 6.31973C20.5561 7.19062 21.2417 8.20879 21.7165 9.34121C22.2091 10.5143 22.4554 11.7584 22.4503 13.0432C22.4351 15.5721 21.4423 17.941 19.6548 19.7133V19.7133Z" fill="white"/>
</svg>

<svg width="26" height="26" fill="none" xmlns="http://www.w3.org/2000/svg"><path d="M18.116 15.232c-.277-.142-1.655-.818-1.912-.91-.256-.096-.444-.141-.63.143-.187.282-.72.909-.888 1.1-.163.187-.328.21-.604.07-1.646-.822-2.725-1.467-3.81-3.328-.286-.495.288-.46.824-1.529.091-.188.045-.348-.026-.49-.07-.142-.63-1.518-.863-2.08-.226-.545-.46-.469-.63-.48-.162-.01-.348-.01-.536-.01-.187 0-.49.072-.746.349-.256.281-.98.96-.98 2.335 0 1.377 1.003 2.71 1.14 2.898.142.188 1.973 3.01 4.784 4.227 1.777.767 2.473.833 3.361.7.541-.08 1.656-.675 1.887-1.332.23-.655.23-1.216.162-1.333-.068-.124-.256-.196-.533-.33Z" fill="#fff"/><path d="M23.491 8.592a11.379 11.379 0 0 0-2.445-3.638 11.282 11.282 0 0 0-3.638-2.445A11.321 11.321 0 0 0 13 1.625h-.05a11.348 11.348 0 0 0-8.037 3.362 11.272 11.272 0 0 0-2.417 3.626 11.379 11.379 0 0 0-.871 4.44 11.41 11.41 0 0 0 1.219 5.076v3.86c0 .644.523 1.167 1.168 1.167h3.862a11.41 11.41 0 0 0 5.075 1.219h.053c1.521 0 2.996-.294 4.385-.87a11.285 11.285 0 0 0 3.626-2.418 11.348 11.348 0 0 0 3.362-8.036 11.332 11.332 0 0 0-.884-4.459Zm-3.836 11.121A9.395 9.395 0 0 1 13 22.445h-.043a9.479 9.479 0 0 1-4.395-1.104l-.214-.114H4.773v-3.575l-.114-.214a9.479 9.479 0 0 1-1.104-4.395 9.387 9.387 0 0 1 2.732-6.698 9.374 9.374 0 0 1 6.672-2.79h.043a9.4 9.4 0 0 1 3.662.733 9.384 9.384 0 0 1 3.021 2.032 9.406 9.406 0 0 1 2.765 6.723 9.41 9.41 0 0 1-2.795 6.67Z" fill="#fff"/></svg>
